X: 3133
T: GOAT FELL
Q: "Strathspey."
R: Strathspey.
%R: strathspey
B: James Kerr "Merry Melodies" v.3 p.16 #133
Z: 2016 John Chambers <jc:trillian.mit.edu>
%%slurgraces yes
%%graceslurs yes
M: C
L: 1/16
K: C
[|\
vc3vdue3ud cA3 Ac3 | G3EC3E G4-G2A2 |\
c3de3c de3 cG3 | ABcB AGFE {E}D4-D2G2 |\
c3de3c cA3 Ac3 | G3EC3E G4(c2d2) |
efgd edcB cG3 G3c | ABcB AGFE {E}D4-D2 |]\
e2 |\
c3de3d ge3 e3f | g3e agfe {e}g4-g2e2 |\
c3de3f ge3 e3g |
f3a ge3 d4-d2e2 |\
c3de3f ge3 e3f | g3e agfe {e}g4-g2a2 |\
agfe fedc edcB cBAG | ABcB AGFE {E}D4-D2 |]

%%sep 1 1 500
%%sep 1 1 500

